X: 1667
T: The Pansy Blossom
M:4/4
L:1/8
B:O'Neill's 1667
N:"collected by J. O'Neill"
K:A
c>d \
| (3eae (3cec (3AcA E2 | C>DA>c e>cA>c | (3dfd (3cec (3BcB A2 | (3GAB (3AGF E2c>d |
| (3eae (3cec (3AcA E2 | C>EG>c d>ef>g | (3agf (3edc (3fed (3cBA | (3GAB (3EFG A2 :|
|: B>c \
| d>BG>BE>GB>c | d>BG>B d2 c>d | e>c (3AcA E>Ac>d | e>c (3Ace a2 g>a |
| (3fgf (3efe (3ded (3cdc | B>cd>e f>ef>g | (3agf (3edc (3fed (3cBA | (3GAB (3EFG A2 :|


